X:1
T:Title
%%score { 1 | 2 }
L:1/8
M:4/4
K:F
V:1 treble nm="Grand Piano"
V:2 bass 
V:1
 z4 z2[Q:1/4=100] C>C | A>A A>G F2 AA | c>c c>d c2 FF | A A2 F [EG]2 [EG]2 |[M:3/4] F6 | %5
[M:1/4] C>C |[M:4/4] A>A A>G F2 AA | c>c c>d c2 FF | A A2 F [EG]2 [EG]2 |[M:3/4] F6 |[M:1/4] c2 | %11
[M:4/4] c3 A c2 c2 | d3 B d2 d2 | [Ac] [Ac]2 A c2 A2 |[M:3/4] [CEG]2 c>c cB |[M:1/4] AG | %16
[M:4/4] F F2 [EG] [FA]2 [Ac]2 | d d2 B d2 dd | [Ac] [Ac]2 [A,F] [CEG]2 [B,EG]2 |[M:3/4] [A,CF]6 |] %20
V:2
 z4 z2 [F,A,]>[F,A,] | [F,CF]>[F,CF] [F,CF]>[F,B,E] [F,A,]2 [F,CF][F,CF] | %2
 [F,A,F]>[F,A,F] [F,A,F]>[F,B,F] [F,A,F]2 [F,A,]2 | [F,CF] [F,CF]2 [F,A,] [C,C]2 [C,B,]2 | %4
[M:3/4] [F,A,]6 |[M:1/4] [F,A,]>[F,A,] |[M:4/4] [F,CF]>[F,CF] [F,CF]>[F,B,E] [F,A,]2 [F,CF][F,CF] | %7
 [F,A,F]>[F,A,F] [F,A,F]>[F,B,F] [F,A,F]2 [F,A,]2 | [F,CF] [F,CF]2 [F,A,] [C,C]2 [C,B,]2 | %9
[M:3/4] [F,A,]6 |[M:1/4][K:treble] [F,A,F]2 |[M:4/4] [F,A,F]3 [F,CF] [F,A,F]2 [F,A,F]2 | %12
 [B,F]3 [B,DF] [B,FB]2 [B,FB]2 | [F,F] [F,F]2 [F,CF] [F,A,F]2 [F,CF]2 | %14
[M:3/4] C,2[K:treble] C>C CB, |[M:1/4] A,[K:bass]G, | %16
[M:4/4] [F,A,] [F,A,]2 [C,C] [F,C]2[K:treble] [F,F]2 | [B,FB] [B,FB]2 [B,D] [B,FB]2 [B,FB][B,FB] | %18
 [F,F] [F,F]2 F, C,2 C,2 |[M:3/4] F,6 |] %20

